X:5
T:Rover's Return, O'Reilly's
R:Jig
O:Ireland
M:6/8
C:Trad.-Buddy MacMaster, Ashley MacIsaac, Donny LeBlanc
K:D
|:gf|eAA fed|eAA g2 f|eAA fed|BGG g2 f|
eAA fed|efg a2 g|aba g2 f|dBG G:|
|:AB|A2 a aea|aea aec|Ace agf|gdB GAB|
A2 a aef|gfe a2 f|gag f2 e|dBG G:|
|:gf|ecA fed|ecA A2 f|ecA gfe|dBG Ggf|
ecA fed|ecA A2 f|gag gfe|dBG G:|
|:AB|A2 a aea|aea aec|Ace agf|gdB GAB|
A2 a aef|gfe a2 f|gag f2 e|dBG G:||

